_includes/icons/ios-closed-envelope.svg

<svg fill="#666" height="50" viewBox="0 0 50 50" width="50" xmlns="http://www.w3.org/2000/svg"><path d="m0 7v36h50v-36zm2 2h46v2.5c-.390625.339844-17.925781 15.636719-19.5625 17.0625l-.09375.09375c-1.296875 1.128906-2.625 1.34375-3.34375 1.34375-.714844 0-2.046875-.214844-3.34375-1.34375-.371094-.324219-3.042969-2.632812-4.96875-4.3125-5.714844-4.984375-14.394531-12.585937-14.6875-12.84375zm0 5.15625c1.734375 1.511719 7.886719 6.867188 13.125 11.4375l-13.125 10.375zm46 0v21.8125l-13.125-10.375c5.238281-4.570312 11.390625-9.925781 13.125-11.4375zm-31.34375 12.78125c1.214844 1.058594 3.410156 2.976563 3.6875 3.21875l.03125.03125c1.691406 1.453125 3.488281 1.8125 4.625 1.8125 1.144531 0 2.957031-.363281 4.65625-1.84375.28125-.242187 2.492188-2.148437 3.71875-3.21875l14.625 11.5625v2.5h-46v-2.5z"/></svg>

<svg xmlns="http://www.w3.org/2000/svg" viewBox="0 0 50 50" width="50" height="50" fill="#666"><path d="M 0 7 L 0 43 L 50 43 L 50 7 Z M 2 9 L 48 9 L 48 11.5 C 47.609375 11.839844 30.074219 27.136719 28.4375 28.5625 L 28.34375 28.65625 C 27.046875 29.785156 25.71875 30 25 30 C 24.285156 30 22.953125 29.785156 21.65625 28.65625 C 21.285156 28.332031 18.613281 26.023438 16.6875 24.34375 C 10.972656 19.359375 2.292969 11.757813 2 11.5 Z M 2 14.15625 C 3.734375 15.667969 9.886719 21.023438 15.125 25.59375 L 2 35.96875 Z M 48 14.15625 L 48 35.96875 L 34.875 25.59375 C 40.113281 21.023438 46.265625 15.667969 48 14.15625 Z M 16.65625 26.9375 C 17.871094 27.996094 20.066406 29.914063 20.34375 30.15625 L 20.375 30.1875 C 22.066406 31.640625 23.863281 32 25 32 C 26.144531 32 27.957031 31.636719 29.65625 30.15625 C 29.9375 29.914063 32.148438 28.007813 33.375 26.9375 L 48 38.5 L 48 41 L 2 41 L 2 38.5 Z"/></svg>
